Flat Remix Dark/apps/scalable/prboom-plus.svg

<svg xmlns="http://www.w3.org/2000/svg" width="512" height="512" version="1.1">
 <g transform="translate(0,480)">
  <path style="fill:#951212;stroke:#000000;stroke-width:14.0092535px" d="m 46.067795,-179.92278 70.046265,-84.05552 -28.018506,-84.05552 70.046266,0 0,-84.05552 84.05552,84.05552 84.05552,-84.05552 42.02776,56.03702 0,84.05552 98.06477,0 -56.03701,126.08327 56.03701,154.10179 -196.12954,-84.055518 -112.07403,70.046265 0,-84.055517 -56.03701,0 0,-56.03702 z"/>
  <path style="fill:#ffc82d;stroke:#000000;stroke-width:14.0092535px" d="m 220.97687,-301.05089 0,42.02775 -42.02776,0 0,70.04627 42.02776,0 0,42.02776 70.04626,0 0,-42.02776 42.02776,0 0,-70.04627 -42.02776,0 0,-42.02775 z"/>
 </g>
</svg>

<svg xmlns="http://www.w3.org/2000/svg" width="384pt" height="384pt" version="1.1" viewBox="0 0 384 384">
 <g>
  <path style="fill:rgb(58.431373%,7.058824%,7.058824%);stroke-width:14.009253;stroke:rgb(0%,0%,0%)" d="M 46.067708 -179.921875 L 116.114583 -263.979167 L 88.09375 -348.03125 L 158.140625 -348.03125 L 158.140625 -432.088542 L 242.197917 -348.03125 L 326.255208 -432.088542 L 368.28125 -376.052083 L 368.28125 -291.994792 L 466.34375 -291.994792 L 410.307292 -165.911458 L 466.34375 -11.8125 L 270.213542 -95.869792 L 158.140625 -25.822917 L 158.140625 -109.875 L 102.104167 -109.875 L 102.104167 -165.911458 Z M 46.067708 -179.921875" transform="matrix(0.75,0,0,0.75,0,360)"/>
  <path style="fill:rgb(100%,78.431373%,17.647059%);stroke-width:14.009253;stroke:rgb(0%,0%,0%)" d="M 220.979167 -301.052083 L 220.979167 -259.020833 L 178.947917 -259.020833 L 178.947917 -188.979167 L 220.979167 -188.979167 L 220.979167 -146.947917 L 291.020833 -146.947917 L 291.020833 -188.979167 L 333.052083 -188.979167 L 333.052083 -259.020833 L 291.020833 -259.020833 L 291.020833 -301.052083 Z M 220.979167 -301.052083" transform="matrix(0.75,0,0,0.75,0,360)"/>
 </g>
</svg>
